X: 4
T:Gwyr Pendref
T:The Men of Pendref
M:6/8
L:1/8
Q:130
S:Cadw Twmpath Collection
R:Jig
A:Wales
Z:brian_martin12345@yahoo.com
K:G
B2Bc2c|dBG cAF|G2GA2A|BcBA3|
B2Bc2c|dBG cAF|G2Gd2B|AGAG3:||
G2d ded|g2d ded|G2d ded|dcBA3|
G2d ded|g2d ded|gfe dcB|AGAG3:||
